packages/icons/src/svg/fullscreen.svg

<svg xmlns="http://www.w3.org/2000/svg" viewBox="0 0 16 16">
  <path d="M6.2427,11.1719,3.20751,14.207,5,16H0V11l1.79251,1.793L4.8281,9.7578ZM11,0l1.793,1.793L9.7568,4.8281l1.4151,1.416L14.20751,3.207,16,5V0ZM4.8281,6.2422,6.2422,4.8281,3.20751,1.793,5,0H0V5L1.79251,3.207Zm6.3438,3.5156L9.7568,11.1719,12.793,14.207,11,16h5V11l-1.793,1.793Z"/>
</svg>

<svg xmlns="http://www.w3.org/2000/svg" viewBox="0 0 16 16">
	<path d="M6.243 11.172l-3.035 3.035L5 16H0v-5l1.793 1.793 3.035-3.035zM11 0l1.793 1.793-3.036 3.035 1.415 1.416 3.036-3.037L16 5V0zM4.828 6.242l1.414-1.414-3.034-3.035L5 0H0v5l1.793-1.793zm6.344 3.516l-1.415 1.414 3.036 3.035L11 16h5v-5l-1.793 1.793z"/>
</svg>
